X:106
T:Polska fr \AA{}re
S:Emma Grut (\& Christina Eketorp)
R:Polska
O:Sweden
M:3/4
A:J\"amtland
K:A
E|\
F>G AB c>A|B>c (3ABA G>E| \
(3GBG (3AcA (3FAF| (3EDC B,B G>E|\
F>G AB c>A|B>c (3ABA G>E|
(3GBG (3AcA (3FAF|F<A A3 ::\
a|\
gc|d>e (3faf (3edc |
B>A G<A B>c |(3ded (3cBA B>G |\
E>a g<a e>c|d>e (3faf (3edc|\
B>A G<A (3Bcd |d<c A3:|
